X: 1701
T: McGinty Lives Over the Way
B: australian traditional tunes wiki
M:6/8
L:1/8
R: Set Tune
Q: 3/8=100
K:G
V:1 
|:"G"dGG GAG|"C"g3-gfe|"G"dGG GAG|"D7"A3ABc|"G"dGG GAG|"C"g3-gfe|"G"ded "D7"cAF|"G"G3-G2D:|
|:"G"G3GBg|"C"e3efg|"G"ded dBA|"G"GAG GED|"G"G3GBg|"C"e3efg|"G"ded "D7"cAF|"G"G3-G3:|
% abcbook-tune_id 6342d53a7447ddf4d1205497


% abcbook-boost 0
% abcbook-tablature 
% abcbook-transpose 
% abcbook-lastupdated 1665324378833
% abcbook-soundfonts 
% abcbook-repeats 1
% NFF Book 2016

